content/blogs/regnskap/hva-er-egenkapitalrentabilitet/roe-pavirkning-faktorer.svg

<svg xmlns="http://www.w3.org/2000/svg" width="800" height="600" viewBox="0 0 800 600"><path fill="#f8f9fa" d="M0 0h800v600H0z"/><text x="400" y="40" fill="#2c3e50" font-family="Arial, sans-serif" font-size="24" font-weight="bold" text-anchor="middle">
    Faktorer som Påvirker Egenkapitalrentabilitet
  </text><circle cx="400" cy="300" r="80" fill="#e3f2fd" stroke="#1976d2" stroke-width="3"/><text x="400" y="295" fill="#1976d2" font-family="Arial, sans-serif" font-size="18" font-weight="bold" text-anchor="middle">
    ROE
  </text><text x="400" y="315" fill="#424242" font-family="Arial, sans-serif" font-size="14" text-anchor="middle">
    Egenkapital-
  </text><text x="400" y="330" fill="#424242" font-family="Arial, sans-serif" font-size="14" text-anchor="middle">
    rentabilitet
  </text><text x="400" y="80" fill="#4caf50" font-family="Arial, sans-serif" font-size="18" font-weight="bold" text-anchor="middle">
    POSITIVE FAKTORER
  </text><rect width="160" height="80" x="50" y="120" fill="#e8f5e8" stroke="#4caf50" stroke-width="2" rx="8"/><text x="130" y="140" fill="#2e7d32" font-family="Arial, sans-serif" font-size="14" font-weight="bold" text-anchor="middle">
    Operasjonell
  </text><text x="130" y="155" fill="#2e7d32" font-family="Arial, sans-serif" font-size="14" font-weight="bold" text-anchor="middle">
    Effektivitet
  </text><text x="60" y="175" fill="#424242" font-family="Arial, sans-serif" font-size="10">• Kostnadsreduksjon</text><text x="60" y="185" fill="#424242" font-family="Arial, sans-serif" font-size="10">• Bedre prissetting</text><text x="60" y="195" fill="#424242" font-family="Arial, sans-serif" font-size="10">• Produktivitet</text><rect width="160" height="80" x="250" y="120" fill="#e8f5e8" stroke="#4caf50" stroke-width="2" rx="8"/><text x="330" y="140" fill="#2e7d32" font-family="Arial, sans-serif" font-size="14" font-weight="bold" text-anchor="middle">
    Inntektsvekst
  </text><text x="260" y="160" fill="#424242" font-family="Arial, sans-serif" font-size="10">• Markedsekspansjon</text><text x="260" y="170" fill="#424242" font-family="Arial, sans-serif" font-size="10">• Nye produkter</text><text x="260" y="180" fill="#424242" font-family="Arial, sans-serif" font-size="10">• Kundevekst</text><text x="260" y="190" fill="#424242" font-family="Arial, sans-serif" font-size="10">• Høyere volum</text><rect width="160" height="80" x="450" y="120" fill="#e8f5e8" stroke="#4caf50" stroke-width="2" rx="8"/><text x="530" y="140" fill="#2e7d32" font-family="Arial, sans-serif" font-size="14" font-weight="bold" text-anchor="middle">
    Kapital-
  </text><text x="530" y="155" fill="#2e7d32" font-family="Arial, sans-serif" font-size="14" font-weight="bold" text-anchor="middle">
    optimalisering
  </text><text x="460" y="175" fill="#424242" font-family="Arial, sans-serif" font-size="10">• Arbeidskapital</text><text x="460" y="185" fill="#424242" font-family="Arial, sans-serif" font-size="10">• Investeringer</text><text x="460" y="195" fill="#424242" font-family="Arial, sans-serif" font-size="10">• Gjeldsgrad</text><rect width="130" height="80" x="650" y="120" fill="#e8f5e8" stroke="#4caf50" stroke-width="2" rx="8"/><text x="715" y="140" fill="#2e7d32" font-family="Arial, sans-serif" font-size="14" font-weight="bold" text-anchor="middle">
    Finansiell
  </text><text x="715" y="155" fill="#2e7d32" font-family="Arial, sans-serif" font-size="14" font-weight="bold" text-anchor="middle">
    Leverage
  </text><text x="660" y="175" fill="#424242" font-family="Arial, sans-serif" font-size="10">• Optimal gjeld</text><text x="660" y="185" fill="#424242" font-family="Arial, sans-serif" font-size="10">• Lav rente</text><text x="660" y="195" fill="#424242" font-family="Arial, sans-serif" font-size="10">• Skattefordel</text><path fill="none" stroke="#4caf50" stroke-width="2" marker-end="url(#a)" d="m130 200 220 50"/><path fill="none" stroke="#4caf50" stroke-width="2" marker-end="url(#a)" d="m330 200 50 50"/><path fill="none" stroke="#4caf50" stroke-width="2" marker-end="url(#a)" d="m530 200-110 50"/><path fill="none" stroke="#4caf50" stroke-width="2" marker-end="url(#a)" d="m715 200-265 50"/><text x="400" y="520" fill="#f44336" font-family="Arial, sans-serif" font-size="18" font-weight="bold" text-anchor="middle">
    NEGATIVE FAKTORER
  </text><rect width="160" height="80" x="50" y="420" fill="#ffebee" stroke="#f44336" stroke-width="2" rx="8"/><text x="130" y="440" fill="#d32f2f" font-family="Arial, sans-serif" font-size="14" font-weight="bold" text-anchor="middle">
    Konkurranse
  </text><text x="60" y="460" fill="#424242" font-family="Arial, sans-serif" font-size="10">• Prispress</text><text x="60" y="470" fill="#424242" font-family="Arial, sans-serif" font-size="10">• Markedsandel</text><text x="60" y="480" fill="#424242" font-family="Arial, sans-serif" font-size="10">• Marginpress</text><text x="60" y="490" fill="#424242" font-family="Arial, sans-serif" font-size="10">• Substitutter</text><rect width="160" height="80" x="250" y="420" fill="#ffebee" stroke="#f44336" stroke-width="2" rx="8"/><text x="330" y="440" fill="#d32f2f" font-family="Arial, sans-serif" font-size="14" font-weight="bold" text-anchor="middle">
    Kostnadsvekst
  </text><text x="260" y="460" fill="#424242" font-family="Arial, sans-serif" font-size="10">• Inflasjon</text><text x="260" y="470" fill="#424242" font-family="Arial, sans-serif" font-size="10">• Lønnsøkning</text><text x="260" y="480" fill="#424242" font-family="Arial, sans-serif" font-size="10">• Råvarepriser</text><text x="260" y="490" fill="#424242" font-family="Arial, sans-serif" font-size="10">• Regulering</text><rect width="160" height="80" x="450" y="420" fill="#ffebee" stroke="#f44336" stroke-width="2" rx="8"/><text x="530" y="440" fill="#d32f2f" font-family="Arial, sans-serif" font-size="14" font-weight="bold" text-anchor="middle">
    Dårlige
  </text><text x="530" y="455" fill="#d32f2f" font-family="Arial, sans-serif" font-size="14" font-weight="bold" text-anchor="middle">
    Investeringer
  </text><text x="460" y="475" fill="#424242" font-family="Arial, sans-serif" font-size="10">• Lav avkastning</text><text x="460" y="485" fill="#424242" font-family="Arial, sans-serif" font-size="10">• Overinvestering</text><text x="460" y="495" fill="#424242" font-family="Arial, sans-serif" font-size="10">• Feil timing</text><rect width="130" height="80" x="650" y="420" fill="#ffebee" stroke="#f44336" stroke-width="2" rx="8"/><text x="715" y="440" fill="#d32f2f" font-family="Arial, sans-serif" font-size="14" font-weight="bold" text-anchor="middle">
    Finansielle
  </text><text x="715" y="455" fill="#d32f2f" font-family="Arial, sans-serif" font-size="14" font-weight="bold" text-anchor="middle">
    Problemer
  </text><text x="660" y="475" fill="#424242" font-family="Arial, sans-serif" font-size="10">• Høy gjeld</text><text x="660" y="485" fill="#424242" font-family="Arial, sans-serif" font-size="10">• Høy rente</text><text x="660" y="495" fill="#424242" font-family="Arial, sans-serif" font-size="10">• Likviditet</text><path fill="none" stroke="#f44336" stroke-width="2" marker-end="url(#b)" d="m130 420 220-70"/><path fill="none" stroke="#f44336" stroke-width="2" marker-end="url(#b)" d="m330 420 50-70"/><path fill="none" stroke="#f44336" stroke-width="2" marker-end="url(#b)" d="m530 420-110-70"/><path fill="none" stroke="#f44336" stroke-width="2" marker-end="url(#b)" d="m715 420-265-70"/><defs><marker id="a" markerHeight="7" markerWidth="10" orient="auto" refX="9" refY="3.5"><path fill="#4caf50" d="m0 0 10 3.5L0 7z"/></marker><marker id="b" markerHeight="7" markerWidth="10" orient="auto" refX="9" refY="3.5"><path fill="#f44336" d="m0 0 10 3.5L0 7z"/></marker></defs></svg>

<svg width="800" height="600" viewBox="0 0 800 600" xmlns="http://www.w3.org/2000/svg">

  <rect width="800" height="600" fill="#f8f9fa"/>
  

  <text x="400" y="40" text-anchor="middle" font-family="Arial, sans-serif" font-size="24" font-weight="bold" fill="#2c3e50">
    Faktorer som Påvirker Egenkapitalrentabilitet
  </text>
  

  <circle cx="400" cy="300" r="80" fill="#e3f2fd" stroke="#1976d2" stroke-width="3"/>
  <text x="400" y="295" text-anchor="middle" font-family="Arial, sans-serif" font-size="18" font-weight="bold" fill="#1976d2">
    ROE
  </text>
  <text x="400" y="315" text-anchor="middle" font-family="Arial, sans-serif" font-size="14" fill="#424242">
    Egenkapital-
  </text>
  <text x="400" y="330" text-anchor="middle" font-family="Arial, sans-serif" font-size="14" fill="#424242">
    rentabilitet
  </text>
  

  <text x="400" y="80" text-anchor="middle" font-family="Arial, sans-serif" font-size="18" font-weight="bold" fill="#4caf50">
    POSITIVE FAKTORER
  </text>
  

  <rect x="50" y="120" width="160" height="80" fill="#e8f5e8" stroke="#4caf50" stroke-width="2" rx="8"/>
  <text x="130" y="140" text-anchor="middle" font-family="Arial, sans-serif" font-size="14" font-weight="bold" fill="#2e7d32">
    Operasjonell
  </text>
  <text x="130" y="155" text-anchor="middle" font-family="Arial, sans-serif" font-size="14" font-weight="bold" fill="#2e7d32">
    Effektivitet
  </text>
  <text x="60" y="175" font-family="Arial, sans-serif" font-size="10" fill="#424242">• Kostnadsreduksjon</text>
  <text x="60" y="185" font-family="Arial, sans-serif" font-size="10" fill="#424242">• Bedre prissetting</text>
  <text x="60" y="195" font-family="Arial, sans-serif" font-size="10" fill="#424242">• Produktivitet</text>
  

  <rect x="250" y="120" width="160" height="80" fill="#e8f5e8" stroke="#4caf50" stroke-width="2" rx="8"/>
  <text x="330" y="140" text-anchor="middle" font-family="Arial, sans-serif" font-size="14" font-weight="bold" fill="#2e7d32">
    Inntektsvekst
  </text>
  <text x="260" y="160" font-family="Arial, sans-serif" font-size="10" fill="#424242">• Markedsekspansjon</text>
  <text x="260" y="170" font-family="Arial, sans-serif" font-size="10" fill="#424242">• Nye produkter</text>
  <text x="260" y="180" font-family="Arial, sans-serif" font-size="10" fill="#424242">• Kundevekst</text>
  <text x="260" y="190" font-family="Arial, sans-serif" font-size="10" fill="#424242">• Høyere volum</text>
  

  <rect x="450" y="120" width="160" height="80" fill="#e8f5e8" stroke="#4caf50" stroke-width="2" rx="8"/>
  <text x="530" y="140" text-anchor="middle" font-family="Arial, sans-serif" font-size="14" font-weight="bold" fill="#2e7d32">
    Kapital-
  </text>
  <text x="530" y="155" text-anchor="middle" font-family="Arial, sans-serif" font-size="14" font-weight="bold" fill="#2e7d32">
    optimalisering
  </text>
  <text x="460" y="175" font-family="Arial, sans-serif" font-size="10" fill="#424242">• Arbeidskapital</text>
  <text x="460" y="185" font-family="Arial, sans-serif" font-size="10" fill="#424242">• Investeringer</text>
  <text x="460" y="195" font-family="Arial, sans-serif" font-size="10" fill="#424242">• Gjeldsgrad</text>
  

  <rect x="650" y="120" width="130" height="80" fill="#e8f5e8" stroke="#4caf50" stroke-width="2" rx="8"/>
  <text x="715" y="140" text-anchor="middle" font-family="Arial, sans-serif" font-size="14" font-weight="bold" fill="#2e7d32">
    Finansiell
  </text>
  <text x="715" y="155" text-anchor="middle" font-family="Arial, sans-serif" font-size="14" font-weight="bold" fill="#2e7d32">
    Leverage
  </text>
  <text x="660" y="175" font-family="Arial, sans-serif" font-size="10" fill="#424242">• Optimal gjeld</text>
  <text x="660" y="185" font-family="Arial, sans-serif" font-size="10" fill="#424242">• Lav rente</text>
  <text x="660" y="195" font-family="Arial, sans-serif" font-size="10" fill="#424242">• Skattefordel</text>
  

  <path d="M 130 200 L 350 250" stroke="#4caf50" stroke-width="2" fill="none" marker-end="url(#greenarrow)"/>
  <path d="M 330 200 L 380 250" stroke="#4caf50" stroke-width="2" fill="none" marker-end="url(#greenarrow)"/>
  <path d="M 530 200 L 420 250" stroke="#4caf50" stroke-width="2" fill="none" marker-end="url(#greenarrow)"/>
  <path d="M 715 200 L 450 250" stroke="#4caf50" stroke-width="2" fill="none" marker-end="url(#greenarrow)"/>
  

  <text x="400" y="520" text-anchor="middle" font-family="Arial, sans-serif" font-size="18" font-weight="bold" fill="#f44336">
    NEGATIVE FAKTORER
  </text>
  

  <rect x="50" y="420" width="160" height="80" fill="#ffebee" stroke="#f44336" stroke-width="2" rx="8"/>
  <text x="130" y="440" text-anchor="middle" font-family="Arial, sans-serif" font-size="14" font-weight="bold" fill="#d32f2f">
    Konkurranse
  </text>
  <text x="60" y="460" font-family="Arial, sans-serif" font-size="10" fill="#424242">• Prispress</text>
  <text x="60" y="470" font-family="Arial, sans-serif" font-size="10" fill="#424242">• Markedsandel</text>
  <text x="60" y="480" font-family="Arial, sans-serif" font-size="10" fill="#424242">• Marginpress</text>
  <text x="60" y="490" font-family="Arial, sans-serif" font-size="10" fill="#424242">• Substitutter</text>
  

  <rect x="250" y="420" width="160" height="80" fill="#ffebee" stroke="#f44336" stroke-width="2" rx="8"/>
  <text x="330" y="440" text-anchor="middle" font-family="Arial, sans-serif" font-size="14" font-weight="bold" fill="#d32f2f">
    Kostnadsvekst
  </text>
  <text x="260" y="460" font-family="Arial, sans-serif" font-size="10" fill="#424242">• Inflasjon</text>
  <text x="260" y="470" font-family="Arial, sans-serif" font-size="10" fill="#424242">• Lønnsøkning</text>
  <text x="260" y="480" font-family="Arial, sans-serif" font-size="10" fill="#424242">• Råvarepriser</text>
  <text x="260" y="490" font-family="Arial, sans-serif" font-size="10" fill="#424242">• Regulering</text>
  

  <rect x="450" y="420" width="160" height="80" fill="#ffebee" stroke="#f44336" stroke-width="2" rx="8"/>
  <text x="530" y="440" text-anchor="middle" font-family="Arial, sans-serif" font-size="14" font-weight="bold" fill="#d32f2f">
    Dårlige
  </text>
  <text x="530" y="455" text-anchor="middle" font-family="Arial, sans-serif" font-size="14" font-weight="bold" fill="#d32f2f">
    Investeringer
  </text>
  <text x="460" y="475" font-family="Arial, sans-serif" font-size="10" fill="#424242">• Lav avkastning</text>
  <text x="460" y="485" font-family="Arial, sans-serif" font-size="10" fill="#424242">• Overinvestering</text>
  <text x="460" y="495" font-family="Arial, sans-serif" font-size="10" fill="#424242">• Feil timing</text>
  

  <rect x="650" y="420" width="130" height="80" fill="#ffebee" stroke="#f44336" stroke-width="2" rx="8"/>
  <text x="715" y="440" text-anchor="middle" font-family="Arial, sans-serif" font-size="14" font-weight="bold" fill="#d32f2f">
    Finansielle
  </text>
  <text x="715" y="455" text-anchor="middle" font-family="Arial, sans-serif" font-size="14" font-weight="bold" fill="#d32f2f">
    Problemer
  </text>
  <text x="660" y="475" font-family="Arial, sans-serif" font-size="10" fill="#424242">• Høy gjeld</text>
  <text x="660" y="485" font-family="Arial, sans-serif" font-size="10" fill="#424242">• Høy rente</text>
  <text x="660" y="495" font-family="Arial, sans-serif" font-size="10" fill="#424242">• Likviditet</text>
  

  <path d="M 130 420 L 350 350" stroke="#f44336" stroke-width="2" fill="none" marker-end="url(#redarrow)"/>
  <path d="M 330 420 L 380 350" stroke="#f44336" stroke-width="2" fill="none" marker-end="url(#redarrow)"/>
  <path d="M 530 420 L 420 350" stroke="#f44336" stroke-width="2" fill="none" marker-end="url(#redarrow)"/>
  <path d="M 715 420 L 450 350" stroke="#f44336" stroke-width="2" fill="none" marker-end="url(#redarrow)"/>
  

  <defs>
    <marker id="greenarrow" markerWidth="10" markerHeight="7" refX="9" refY="3.5" orient="auto">
      <polygon points="0 0, 10 3.5, 0 7" fill="#4caf50"/>
    </marker>
    <marker id="redarrow" markerWidth="10" markerHeight="7" refX="9" refY="3.5" orient="auto">
      <polygon points="0 0, 10 3.5, 0 7" fill="#f44336"/>
    </marker>
  </defs>
</svg>
